!!!id: BC089
!!!page: 113
!!!COM: Anonymous
!!!PTL@@FR: Les 100 plus belles chansons
!!!OTL: Marie Ma-de-leine
!!!PUB: La Bonne Chanson, inc.
!!!YEM: On ne peut reproduire, enregistrer ou diffuser en tout ou en partie le présent ouvrage, sous quelque procédé que ce soit, électronique, mécanique, photographique, sonore, magnétique ou autre, sans avoir obtenu au préalable l'autorisation écrite de l'éditrice.
!!!PDT: 2011
!!!SMA: 2012 Bibliothèque nationale du Québec; Biblothèque nationale du Canada
!!!AGN-Laforte: Chanson strophique (avec refrain), 13:2(8), avec répétition à cheval de la deuxième ligne; R:4(5/6)
!!!AGN-type: Chanson de marins
!!!AGN-rime: suivies, monorime double /a/ et /ɛ/
!!!LYR-elision: Final "e" (pèr', Encor', Madelein', lain', bell'); medial & final "e" (p'tit'); medial "e" (p'tit, parl'nt)
!!!RNB: Partial double barlines replaced with breath mark above staff.
**kern	**text	**text	**text	**text	**text	**text	**text	**text	**text	**text	**text	**text	**text
*clefG2	*	*	*	*	*	*	*	*	*	*	*	*	*
*k[f#]	*	*	*	*	*	*	*	*	*	*	*	*	*
*G:	*	*	*	*	*	*	*	*	*	*	*	*	*
!!LO:TX:a:B:t=Allegretto
*M2/4	*	*	*	*	*	*	*	*	*	*	*	*	*
*	*v:1	*	*	*	*	*	*	*	*	*	*	*	*
*	*pline:1	*pline:2r	*pline:3r	*pline:4r	*pline:5r	*pline:6r	*pline:7r	*pline:8r	*pline:9r	*pline:10r	*pline:11r	*pline:12r	*pline:13r
!!LO:TX:a:B:t=Solo
8b	Mon	En-	Le	Il	Ma	Nen-	Car	Fil-	Mais	Ce	Les	Ils	Hé-
!!errata: elision of final "e" missing the apostrophe in original.
8b	pèr'	-cor'	ma-	de-	mi-	-ni,	si	-le	qui,	se-	oi-	parl'nt	-las!
8g	n'a-	sur	-ri-	-vint	-gnon-	mon-	mon	bat-	la	-rait	-seaux	fran-	que
=1||	=1||	=1||	=1||	=1||	=1||	=1||	=1||	=1||	=1||	=1||	=1||	=1||	=1||
*M3/4	*	*	*	*	*	*	*	*	*	*	*	*	*
4a	-vait	la	-nier	a-	-nett[e],	-sieur,	pa-	-tue,	bell',	les	des	-çais,	le
4b	fil-	mer	qui	-mou-	em-	je	-pa	ce	le	oi-	bois	la-	mond[e]
8g	-le	il	m'y	-reux	-bras-	n'o-	le	se-	lui	-seaux	par-	-tin	est
8e	que	m'en-	me-	de	-sez-	-se-	sa-	-rait	di-	des	-lent-	aus-	ma-
=2||	=2||	=2||	=2||	=2||	=2||	=2||	=2||	=2||	=2||	=2||	=2||	=2||	=2||
*M2/4	*	*	*	*	*	*	*	*	*	*	*	*	*
8g,	moi,	-voie,	-nait,	moi,	-moi,	-rais,	-vait,	moi,	-rait?	bois,	-ils?	-si,	-lin,
*	*rp:a	*rp:a	*rp:ɛ	*rp:a	*rp:a	*rp:ɛ	*rp:ɛ	*rp:a	*rp:ɛ	*rp:a	*rp:i	*rp:i	*rp:ẽ
*	*rf:wa	*rf:wa	*rf:nɛ	*rf:wa	*rf:wa	*rf:ʁɛ	*rf:vɛ	*rf:wa	*rf:ʁɛ	*rf:wa	*rf:il	*rf:si	*rf:lẽ
*	*rs:a	*rs:a	*rs:b1	*rs:a	*rs:a	*rs:b2	*rs:b3	*rs:a	*rs:b2	*rs:a	*rs:c1	*rs:c2	*rs:d1
!!Partial double barline (top staff)
*	*pline:1r	*pline:2r	*pline:3r	*pline:4r	*pline:5r	*pline:6r	*pline:7r	*pline:8r	*pline:9r	*pline:10r	*pline:11r	*pline:12r	*pline:13r
!!LO:TX:a:B:t=Choeur
8b	Mon	En-	Le	Il	Ma	Nen-	Car	Fil-	Mais	Ce	Les	Ils	Hé-
8b	pèr'	-cor'	ma-	de-	mi-	-ni,	si	-le	qui,	se-	oi-	parl'nt	-las!
8g	n'a-	sur	-ri-	-vint	-gnon-	mon-	mon	bat-	la	-rait	-seaux	fran-	que
!!LO:PB:g=original
=3||	=3||	=3||	=3||	=3||	=3||	=3||	=3||	=3||	=3||	=3||	=3||	=3||	=3||
*M3/4	*	*	*	*	*	*	*	*	*	*	*	*	*
4a	-vait	la	-nier	a-	-nett[e],	-sieur,	pa-	-tue,	bell',	les	des	-çais,	le
4b	fil-	mer	qui	-mou-	em-	je	-pa	ce	le	oi-	bois	la-	mond[e]
8g	-le	il	m'y	-reux	-bras-	n'o-	le	se-	lui	-seaux	par-	-tin	est
8e	que	m-en-	me-	de	-sez-	-se-	sa-	-rait	di-	des	-lent-	aus-	ma-
=4||	=4||	=4||	=4||	=4||	=4||	=4||	=4||	=4||	=4||	=4||	=4||	=4||	=4||
*M4/4	*	*	*	*	*	*	*	*	*	*	*	*	*
*met(c)	*	*	*	*	*	*	*	*	*	*	*	*	*
8g,	moi,	-voie,	-nait,	moi,	-moi.	-rais.	-vait,	moi.	-rait?	bois.	-ils?	-si.	-lin.
*	*rp:a	*rp:a	*rp:ɛ	*rp:a	*rp:a	*rp:ɛ	*rp:ɛ	*rp:a	*rp:ɛ	*rp:a	*rp:i	*rp:i	*rp:ẽ
*	*rf:wa	*rf:wa	*rf:nɛ	*rf:wa	*rf:wa	*rf:ʁɛ	*rf:vɛ	*rf:wa	*rf:ʁɛ	*rf:wa	*rf:il	*rf:si	*rf:lẽ
*	*rs:a	*rs:a	*rs:b1	*rs:a	*rs:a	*rs:b2	*rs:b3	*rs:a	*rs:b2	*rs:a	*rs:c1	*rs:c2	*rs:d1
*	*pline:2	*pline:3	*pline:4	*pline:5	*pline:6	*pline:7	*pline:8	*pline:9	*pline:10	*pline:11	*pline:12	*pline:13	*pline:14
!!LO:TX:a:B:t=Solo
8g	En-	Le	Il	–Ma	–Ne-	Car	Fil-	–Mais	–Ce	–Les	–Ils	–Hé-	D'ap-
!!errata: elision of final "e" missing the apostrophe in original
8g	cor'	ma-	de-	mi-	-ni,	si	-le	qui,	se-	oi-	parl'nt	-las!	-prendr[e]
8b	sur	-ri-	-vint	-gnon-	mon-	mon	bat-	la	-rait	-seaux	fran-	que	aux
8dd	la	-nier	a-	-nett[e],	-sieur,	pa-	-tue,	bell',	les	des	-çais,	le	oi-
!!LO:TX:a:i:t=poco rit.
8dd	mer	qui	-mou-	em-	je	-pa	ce	le	oi-	bois	la-	mond[e]	-seaux
8dd	il	m'y	-reux	-bras-	n'o-	le	se-	lui	-seaux	par-	-tin	est	le
8dd	m'en-	me-	de	-sez-	-se-	sa-	-rait	di-	des	-lent-	aus-	ma-	la-
!!LO:PB:g=original
=5||	=5||	=5||	=5||	=5||	=5||	=5||	=5||	=5||	=5||	=5||	=5||	=5||	=5||
*M2/4	*	*	*	*	*	*	*	*	*	*	*	*	*
8b;	-voie.	-nait.	moi.	-moi.	-rais.	-vait,	moi.	-rait?	bois.	-ils?	-si.	-lin.	-tin!
*	*rp:a	*rp:ɛ	*rp:a	*rp:a	*rp:ɛ	*rp:ɛ	*rp:a	*rp:ɛ	*rp:a	*rp:i	*rp:i	*rp:ẽ	*rp:ẽ
*	*rf:wa	*rf:nɛ	*rf:wa	*rf:wa	*rf:ʁɛ	*rf:vɛ	*rf:wa	*rf:ʁɛ	*rf:wa	*rf:il	*rf:si	*rf:lẽ	*rf:tẽ
*	*rs:a	*rs:b1	*rs:a	*rs:a	*rs:b2	*rs:b3	*rs:a	*rs:b2	*rs:a	*rs:c1	*rs:c2	*rs:d1	*rs:d2
=||:	=||:	=||:	=||:	=||:	=||:	=||:	=||:	=||:	=||:	=||:	=||:	=||:	=||:
*>Refrain	*>Refrain	*>Refrain	*>Refrain	*>Refrain	*>Refrain	*>Refrain	*>Refrain	*>Refrain	*>Refrain	*>Refrain	*>Refrain	*>Refrain	*>Refrain
*	*pline:R1	*	*	*	*	*	*	*	*	*	*	*	*
!!LO:TX:a:B:t=REFRAIN
(16gL	Ma-	.	.	.	.	.	.	.	.	.	.	.	.
16aJ)	.	.	.	.	.	.	.	.	.	.	.	.	.
8b/	-rie--	.	.	.	.	.	.	.	.	.	.	.	.
16b/	Ma-	.	.	.	.	.	.	.	.	.	.	.	.
16b/	-de-	.	.	.	.	.	.	.	.	.	.	.	.
=6	=6	=6	=6	=6	=6	=6	=6	=6	=6	=6	=6	=6	=6
8b	-lein',	.	.	.	.	.	.	.	.	.	.	.	.
*	*rp:ɛ	*	*	*	*	*	*	*	*	*	*	*	*
*	*rf:ɛn,(ə)	*	*	*	*	*	*	*	*	*	*	*	*
*	*rs:b4	*	*	*	*	*	*	*	*	*	*	*	*
*	*pline:R2	*	*	*	*	*	*	*	*	*	*	*	*
8dd	son	.	.	.	.	.	.	.	.	.	.	.	.
16a	p'tit	.	.	.	.	.	.	.	.	.	.	.	.
16a	ju-	.	.	.	.	.	.	.	.	.	.	.	.
16a	-pon	.	.	.	.	.	.	.	.	.	.	.	.
16a	de	.	.	.	.	.	.	.	.	.	.	.	.
!!LO:PB:g=original
=7	=7	=7	=7	=7	=7	=7	=7	=7	=7	=7	=7	=7	=7
8a	lain',	.	.	.	.	.	.	.	.	.	.	.	.
*	*rp:ɛ	*	*	*	*	*	*	*	*	*	*	*	*
*	*rf:ɛn,(ə)	*	*	*	*	*	*	*	*	*	*	*	*
*	*rs:b4	*	*	*	*	*	*	*	*	*	*	*	*
!LO:S:dash	!	!	!	!	!	!	!	!	!	!	!	!	!
*	*pline:R3	*	*	*	*	*	*	*	*	*	*	*	*
(16g	Sa	.	.	.	.	.	.	.	.	.	.	.	.
16a)	p'tit'	.	.	.	.	.	.	.	.	.	.	.	.
[>16b/	robe	.	.	.	.	.	.	.	.	.	.	.	.
16b/]	.	.	.	.	.	.	.	.	.	.	.	.	.
16b/	"car-	.	.	.	.	.	.	.	.	.	.	.	.
16b/	-reau-	.	.	.	.	.	.	.	.	.	.	.	.
=8	=8	=8	=8	=8	=8	=8	=8	=8	=8	=8	=8	=8	=8
8b	-tée",	.	.	.	.	.	.	.	.	.	.	.	.
*	*rp:e	*	*	*	*	*	*	*	*	*	*	*	*
*	*rf:te	*	*	*	*	*	*	*	*	*	*	*	*
*	*rs:e	*	*	*	*	*	*	*	*	*	*	*	*
*	*pline:R4	*	*	*	*	*	*	*	*	*	*	*	*
8dd	Son	.	.	.	.	.	.	.	.	.	.	.	.
16a	p'tit	.	.	.	.	.	.	.	.	.	.	.	.
16a	ju-	.	.	.	.	.	.	.	.	.	.	.	.
16a	-pon	.	.	.	.	.	.	.	.	.	.	.	.
16a	pi-	.	.	.	.	.	.	.	.	.	.	.	.
=9	=9	=9	=9	=9	=9	=9	=9	=9	=9	=9	=9	=9	=9
8g	-qué!	.	.	.	.	.	.	.	.	.	.	.	.
*	*rp:e	*	*	*	*	*	*	*	*	*	*	*	*
*	*rf:te	*	*	*	*	*	*	*	*	*	*	*	*
*	*rs:e	*	*	*	*	*	*	*	*	*	*	*	*
=:||	=:||	=:||	=:||	=:||	=:||	=:||	=:||	=:||	=:||	=:||	=:||	=:||	=:||
!!!RDF**kern: > = below
!!!EED: Ève Poudrier
!!!EEV: 2025/07/28
